X:1
T:3. Green
T:Gabriel Fauré
T:Paul Verlaine
T:Cinq mélodies Op.58
%%score 1 { ( 2 4 ) | ( 3 5 ) }
L:1/8
Q:1/4=69
M:3/4
K:Gb
V:1 treble nm="Voix"
V:2 treble nm="Piano"
V:4 treble 
V:3 bass 
V:5 bass 
V:1
"^Andante con moto."!ped! z2 z2 z/!p! B/ B/ G/!ped-up! | %1
w: Voi- ci des|
 !breath!A3/2 G/!<(! !breath!B3/2 B/!<)! d/ B/!>(! =c/ A/!>)! | (B>F) F2- F z/!<(! =d/ | %3
w: fruits, des fleurs, des feuil- les~ et~ *|bran- * ches.... _ Et|
!f! e/!<)! B/ =G/ E/ F G/ =D/!>(! E F/ _G/!>)! |!p! G2- G z z/"^dolce" c/ B/ G/ | %5
w: puis voi- ci mon coeur~ qui ne bat que pour|vous... _ Ne le dé-|
!<(! A3/2 B/ c3/2 c/ d/ e/ c/ d/!<)! |!<(! e2 d2 z/ d/ e/ f/!<)! |!f! g3/2 B/ A2!>(! B!>)! c/ d/ | %8
w: chi- rez pas a- vec vos deux mains|blan- ches, Et qu'à vos|yeux si beaux, l'hum- ble pré-|
!p! d3 d!pp! d2- | d2- d z z2 | z"^dolce" ^F =A2 ^F =G/ A/ | =B3/2 B/ B2- B/ ^A/ B/ ^c/ | %12
w: \- sent soit doux!|_ _|J'ar- ri- ve tout cou-|\- vert en- co- * re de ro-|
 ^c2 c z!<(! =d3/2!<)! d/ |!mf! _e =d/ =c/ B2 B3/2 _d/ |!>(! _c B/!>)! A/ _G2- G/ z/ G | %15
w: sé- e, Que le|vent du ma- tin vient gla-|cer à mon front. _ Souf-|
!<(! G/ G/ A/ A/ B A/ B/ =c B/ c/!<)! | B2 A4 |!f! (_f2 f d e c | A3)"^sempre" (A!<(! B c!<)! | %19
w: \-~frez que ma fa- tigue à vos pieds re- po-|sé- e|Rê- ve des chers ins-|tants qui la dé-|
 =f3/2 e/) F4- | F2- F z z2 | z6 | z"^dolce" B B3/2 G/ A3/2 G/ | %23
w: \-~las- se- ront|_ _||Sur vo- tre jeu- ne|
!<(! B3/2 B/!<)! d2!>(! (3=c B A!>)! | (B>F) F2!<(! d =d/ d/!<)! |!f! e3/2 B/ =G _G e B | %26
w: sein, lais- sez rou- ler ma|tê _ te Tou- te so-|nore en- cor de vos der-|
!>(! d3/2 B/!>)! A2!<(! =A3/2 A/!<)! |!f! (3(=e =d ^c (3c =B =A!>(! (3^G ^F!>)! =E |!p! =E2 ^C4) | %29
w: niers bai- sers, Lais- sez-|la s'a- pai- ser de la bon- ne tem-|pê- te.|
 z2 z2 z!p! =A | B d B3 G |"^sempre dolce" _F4 _f __B | _B2 d3 B | B6- | B2- B z z2 | z6 | z6 |] %37
w: Et|que je dorme un|peu, Puis- que|vous re- po-|sez.|_ _|||
V:2
!p! (.[GB].[GB].[GB].[GB].[GB].[GB]) | (.[GA].[GA]!<(!.[GB]!<)!.[GB].[Gd]!>(!.[G=c])!>)! | %2
 (.[FB].[B,FB]!<(!.[FB].[EF=c].[DFd]!<)!.[=DF=d]) | %3
!f! (.[EBe]!ped!.[=D=G].[=CF]!ped-up!.[=G,DG]!>(!.[G,=B,E].[A,_CF])!>)! | %4
 (.[B,G]!ped!.[B,G].[B,B].[Gd]!ped-up!.[Dc].[EB]) | [_FA][EB][Dc][Gc]d(c/d/) | %6
 [Ee][Be][Ad][cd]d(e/f/) |!f! [Gg][GB]A[GA][FB][Ec] | (.[Dd].[Dc].[DB].[CA]) B,[A,C] | %9
 [G,B,]!ped!B,B,B,"^dolce"^A,A, | ^A,A,=A,A,!ped-up!A,A, | =B,B,B,B,B,B, | ^A,A,A,A,=A,A, | %13
 (=A,[A,E]B,B,[I:staff +1][=E,B,][E,B,_D] |[I:staff -1] _E2!p! _D/B,/C[CE][DG]) | %15
!<(! [=CG][CA][B,B][B,B][=D=c][Dc]!<)! | [B,B][B,B][=CA][CA=c][=DA=d][DAe] | %17
!mf! [_FA_f]!ped![FA][FA]!ped-up![FA][EA][EA] | ([A,A]A,A,!<(!A,)!<)!A,A, | %19
"^espressivo" (f2!ped! e!ped-up!cd/B/c- |!ped! cBcA!ped-up!B/G/A- | %21
!>(! [__B,_FA][B,EG][B,DF][B,D]E/C/D-)!>)! | %22
 (.D.D!ped!.[B,DG].[DGB]!ped-up!!ped!.[GA].[GA])!ped-up! | %23
!<(!!ped! (.[GB].[GB]!<)!!ped-up!!ped!.[Gd].[Gd]!ped-up!!>(!!ped!.[G=c].[Gc])!>)!!ped-up! | %24
 [FB]!ped![B,FB]!<(![FB]!ped-up![EF=c][DFd][=DF=d]!<)! | %25
 [EBe]!ped![Ed][=D=G]!ped-up![_D_G][Ee][EB] | [Dd][DB][GA][GA][=E=A][EA] | %27
 [=A,=E][A,E][A,^C^F][A,CF]!>(![^G,CE][G,CE]!>)! |"^dolce" (=E2 ^F2 =G2 | %29
 [=A,=A]2 [=B,=B]2 [A,A]2) | [_B,_B]6!ped!!ped-up! |"^dolce" ([=A,=A]2 [=B,=B]2 [A,A]2) | %32
 [_B,_B]6!ped!!ped-up! | (E/!ped!=C/D-) D4!ped-up! | [B,B]2!ped! x2 [B,B]2!ped-up! | %35
 [B,D]4!ped! [B,D]2 | [B,D]4 z2!ped-up! |] %37
V:3
 (.[G,D].[G,D].[G,D].[G,D].[G,D].[G,D]) | (.[CE].[CE].[=CE].[CE].[B,D].[A,E]) | %2
 (.[D,B,D].[D,F,].[D,F,=G,].[=C,F,=A,].[B,,F,B,].[A,,F,_C]) | %3
 (.[=G,,E,B,].[B,,E,].[=A,,E,].[=B,,=D,].E,,._D,,) | %4
 (.[G,,D,].[G,,D,].[D,G,].[E,B,].[F,A,].[G,B,]) |!<(! [D,C][G,B,][_F,A,][E,G,][F,C][A,C]!<)! | %6
!<(! [C,G,][K:treble][CG][C=F][EG][DF][CE]!<)! | %7
[K:bass] [B,D][E,D][F,=C][E,_C]!>(![D,B,]!>)![C,G,] | %8
!p! (.[B,,F,].[A,,F,].[G,,F,].[G,,E,]!pp!.[G,,D,].[G,,D,]) | %9
 [G,,D,][G,,D,][G,,D,][G,,D,][^F,,^C,][F,,C,] | [^F,,^C,][F,,C,][F,,=D,][F,,D,][F,,D,][F,,D,] | %11
 [=F,,=D,][F,,D,][F,,D,][=G,,D,][^G,,^C,][G,,C,] | %12
 [^F,,^C,][F,,C,][F,,C,][F,,C,]!<(![F,,=D,]!<)![F,,D,] |!mf! =F,,2 =G,,2 _A,,2 | %14
!>(! [F,_C][F,C]!>)!_G,G,G,F, | E,[E,G,][=D,F,][D,F,][F,A,][F,A,] | %16
!>(! [=D,F,][D,F,]!>)!!<(![E,G,][E,G,][G,=C][G,C]!<)! | [_F,_C][F,C][F,D][F,D][F,C][F,C] | %18
 [C,_F,][C,F,][C,F,][C,F,][C,F,][C,F,] |!f! CCCCCC | z2 (__E,2 D,2) | z2 (D,_F, [=F,C][F,A,]) | %22
!pp! D,,4 [CE]2 | [=CE]2 [B,D]2 [A,E]2 | [D,F,D][D,F,][D,F,=G,][=C,F,=A,][B,,F,B,][A,,F,_C] | %25
!f! [E,B,][E,B,][E,B,][_F,B,][G,B,][G,B,] |!>(! [G,B,][G,B,][A,=C]!>)![A,C]!<(![=A,^C][A,C]!<)! | %27
!f! [^C,,^C,]2 [^D,,^D,]2 [=E,,=E,]2 | [=E,^C][E,C][^F,C][F,C][=G,C][G,C] | %29
 [=C,^F,][C,F,][C,F,][C,F,][C,F,][C,F,] |!pp! [_D,_G,][D,G,][D,G,][D,G,][D,G,][D,G,] | %31
 [=C,^F,][C,F,][C,F,][C,F,][C,F,][C,F,] | [_D,_G,][D,G,][D,G,][D,G,] z [D,G,] | %33
 z [B,,E,=G,][B,,E,G,][B,,E,G,] z [B,,E,G,] | z [D,_G,][D,G,][D,G,][D,G,]G, | %35
 [G,,D,G,]4 [G,,D,G,]2 | [G,,D,G,]4 z2 |] %37
V:4
 x6 | x6 | x6 | x6 | x6 | x4 A_F | x4 BA | x6 | x4 G2- | G2 z2 (^A2 | ^G/=E/^F- F4) | %11
 (=A2 =G/=E/^E- E2) | (^A2 ^G/=E/^F- F2) | [_E=G]2 =F/=D/=E- E2 | x6 | x6 | x6 | x6 | %18
 E2 D/B,/C- C2 | =FFFFFF | [CF][CF][CF][CF][B,_F][B,F] | x6 | x6 | x6 | x6 | x6 | x6 | x6 | x6 | %29
 =E6 | (E/=C/_D-) D4 | =E6 | (_E/=C/_D-) D4 | (B2 e3 B) | (E/=C/D-) D2 (E/C/D) | B6- | B4 x2 |] %37
V:5
 x6 | x6 | x6 | x6 | x6 | x6 | x[K:treble] x5 |[K:bass] x6 | x6 | x6 | x6 | x6 | x6 | x6 | %14
 _D,,2 E,,2 B,,2 | A,,4 A,,2- | A,,2 A,,4 | (A,,2 B,,2 C,2) | _F,,4 E,,2 |{/D,,} D,,3 (B,,2 A,,) | %20
 G,,6 | C,,4 D,,2- | [F,=A,][G,B,] x4 | x6 | x6 | =G,,2 B,,2 _C,2 | =F,2 E,2 ^C,2 | =E,E, x4 | %28
 [=A,,,=A,,]4 =E,,2 | ^F,,4 F,,2 | _G,,4 G,,2 | ^F,,4 F,,2 | _G,,4 B,,2 | E,,4 =G,,2 | _G,,4 G,,2 | %35
 x6 | x6 |] %37

